packages/foundations/assets/icons/functional/images/business & payment/shopping_cart_20.svg

<svg width="20" height="20" viewBox="0 0 20 20" fill="none" xmlns="http://www.w3.org/2000/svg">
<g clip-path="url(#clip0_184_141)">
<path fill-rule="evenodd" clip-rule="evenodd" d="M7.50067 18C8.18867 18 8.75067 17.437 8.75067 16.75C8.75067 16.062 8.18767 15.5 7.50067 15.5C6.78167 15.5 6.25067 16.063 6.25067 16.75C6.25067 17.438 6.78167 18 7.50067 18ZM14.2507 18C14.9387 18 15.5007 17.437 15.5007 16.75C15.5007 16.062 14.9387 15.5 14.2507 15.5C13.5637 15.5 13.0007 16.063 13.0007 16.75C13.0007 17.438 13.5637 18 14.2507 18ZM4.15667 2C5.09467 2 5.84467 2.656 6.06267 3.594L6.15767 4H16.7507C16.9013 3.99714 17.0505 4.02903 17.1868 4.0932C17.3231 4.15737 17.4427 4.25209 17.5365 4.37C17.6302 4.48792 17.6955 4.62585 17.7273 4.7731C17.759 4.92034 17.7564 5.07292 17.7197 5.219L16.6567 9.78C16.4697 10.53 15.9067 11.249 14.9067 11.343L7.59467 12.03L7.78167 12.999H14.7507C15.3137 12.999 15.7507 13.437 15.7507 13.999C15.7507 14.468 15.3127 14.999 14.7507 14.999H7.84467C6.81267 14.999 5.96967 14.311 5.81267 13.405L4.12567 4H3.25067C2.68767 4 2.25067 3.531 2.25067 3C2.25067 2.469 2.71967 2 3.25067 2H4.15667ZM15.5007 6H6.50067L7.25067 10.063L14.6887 9.343L15.5007 6Z" fill="#1A1C1F"/>
</g>
<defs>
<clipPath id="clip0_184_141">
<rect width="20" height="20" fill="white"/>
</clipPath>
</defs>
</svg>

<svg xmlns="http://www.w3.org/2000/svg" width="20" height="20" fill="none"><g clip-path="url(#a)"><path fill="#1A1C1F" fill-rule="evenodd" d="M7.5 18c.689 0 1.25-.563 1.25-1.25S8.189 15.5 7.5 15.5c-.718 0-1.25.563-1.25 1.25S6.783 18 7.5 18m6.75 0c.689 0 1.25-.563 1.25-1.25s-.561-1.25-1.25-1.25c-.686 0-1.25.563-1.25 1.25S13.565 18 14.25 18M4.158 2c.938 0 1.688.656 1.906 1.594L6.158 4H16.75a.98.98 0 0 1 .969 1.219L16.657 9.78c-.187.75-.75 1.469-1.75 1.563l-7.312.687.187.969h6.969c.563 0 1 .438 1 1 0 .469-.438 1-1 1H7.845c-1.032 0-1.875-.688-2.032-1.594L4.126 4H3.25c-.563 0-1-.469-1-1s.469-1 1-1zM15.5 6h-9l.75 4.063 7.438-.72z" clip-rule="evenodd"/></g><defs><clipPath id="a"><path fill="#fff" d="M0 0h20v20H0z"/></clipPath></defs></svg>
